X:WFS 13-12 10
T:The Keel Row
M:2/4
K:G
[P:A] B2GB | c2Ac | B2GB | AFD2 | B2GB | c2Ac | BGAF | G4 :|
[P:B] (3Bdddg | e2dc | B2FB | AGD2 | (3Bdddg | e2dc | BGAF | G4 :|

%%text Salmon Tails Up The Water (WFS 13-12 11 = WFS 13-10 14), into...

% WFS 13-12 12 = WFS 13-11 07 Rattling Bog

%%text !Michael Turner's Waltz (WFS 13-12 13 = WFS 13-07 05)

%%text Oyster Girl (WFS 13-12 14 = WFS 13-11 12), into...

